build/img/btn-right-desktop-hover.svg

<svg width="185" height="66" viewBox="0 0 185 66" fill="none" xmlns="http://www.w3.org/2000/svg">
<g filter="url(#filter0_d_1766_28397)">
<path d="M185 47.9999C185 54.6273 179.627 59.9999 173 59.9999L21.44 60C12.0596 60 6.30617 49.7206 11.2114 41.7249L33.2966 5.72497C35.4788 2.16796 39.3522 2.20038e-06 43.5252 2.57452e-06L173 1.41829e-05C179.627 1.47771e-05 185 5.3726 185 12L185 47.9999Z" fill="#DEE5EE"/>
<path d="M184 47.9999C184 54.075 179.075 58.9999 173 58.9999L21.44 59C12.8412 59 7.56732 49.5773 12.0638 42.2479L34.149 6.24789C36.1493 2.98729 39.6999 1 43.5252 1L173 1.00001C179.075 1.00001 184 5.92488 184 12L184 47.9999Z" stroke="url(#paint0_linear_1766_28397)" stroke-width="2"/>
</g>
<defs>
<filter id="filter0_d_1766_28397" x="9.42188" y="0" width="175.578" height="66" filterUnits="userSpaceOnUse" color-interpolation-filters="sRGB">
<feFlood flood-opacity="0" result="BackgroundImageFix"/>
<feColorMatrix in="SourceAlpha" type="matrix" values="0 0 0 0 0 0 0 0 0 0 0 0 0 0 0 0 0 0 127 0" result="hardAlpha"/>
<feOffset dy="6"/>
<feComposite in2="hardAlpha" operator="out"/>
<feColorMatrix type="matrix" values="0 0 0 0 0.641585 0 0 0 0 0.752635 0 0 0 0 0.821667 0 0 0 1 0"/>
<feBlend mode="normal" in2="BackgroundImageFix" result="effect1_dropShadow_1766_28397"/>
<feBlend mode="normal" in="SourceGraphic" in2="effect1_dropShadow_1766_28397" result="shape"/>
</filter>
<linearGradient id="paint0_linear_1766_28397" x1="5.66936e-06" y1="-28.421" x2="8.21688" y2="127.196" gradientUnits="userSpaceOnUse">
<stop stop-color="#D6E0E6"/>
<stop offset="0.445833" stop-color="#D6E1E8" stop-opacity="0"/>
<stop offset="0.771784" stop-color="#F4FBFF"/>
</linearGradient>
</defs>
</svg>

<svg width="185" height="66" fill="none" xmlns="http://www.w3.org/2000/svg"><g filter="url(#filter0_d_1766_28397)"><path d="M185 48c0 6.627-5.373 12-12 12H21.44c-9.38 0-15.134-10.28-10.229-18.275l22.086-36A12 12 0 0143.525 0H173c6.627 0 12 5.373 12 12v36z" fill="#DEE5EE"/><path d="M184 48c0 6.075-4.925 11-11 11H21.44c-8.599 0-13.873-9.423-9.376-16.752l22.085-36A11 11 0 0143.525 1H173c6.075 0 11 4.925 11 11v36z" stroke="url(#paint0_linear_1766_28397)" stroke-width="2"/></g><defs><linearGradient id="paint0_linear_1766_28397" x1="0" y1="-28.421" x2="8.217" y2="127.196" gradientUnits="userSpaceOnUse"><stop stop-color="#D6E0E6"/><stop offset=".446" stop-color="#D6E1E8" stop-opacity="0"/><stop offset=".772" stop-color="#F4FBFF"/></linearGradient><filter id="filter0_d_1766_28397" x="9.422" y="0" width="175.578" height="66" filterUnits="userSpaceOnUse" color-interpolation-filters="sRGB"><feFlood flood-opacity="0" result="BackgroundImageFix"/><feColorMatrix in="SourceAlpha" values="0 0 0 0 0 0 0 0 0 0 0 0 0 0 0 0 0 0 127 0" result="hardAlpha"/><feOffset dy="6"/><feComposite in2="hardAlpha" operator="out"/><feColorMatrix values="0 0 0 0 0.641585 0 0 0 0 0.752635 0 0 0 0 0.821667 0 0 0 1 0"/><feBlend in2="BackgroundImageFix" result="effect1_dropShadow_1766_28397"/><feBlend in="SourceGraphic" in2="effect1_dropShadow_1766_28397" result="shape"/></filter></defs></svg>
